X:1
T:Title
%%score { ( 1 3 4 ) | ( 2 5 ) }
L:1/8
M:4/4
K:Ab
V:1 treble nm="Grand Piano"
V:3 treble 
V:4 treble 
V:2 bass 
V:5 bass 
V:1
 z4 z2[Q:1/4=110] E2 | [Ec]4 z4 | [DF]2 [DA]2 [Ec]2 [Ee]2 | [Ee]6 z2 | e6 c2 | %5
 [=Ec]2 [EG]2 [FA]2 [Ac]2 | [Ge]2 [GB]2 c2 c2 | B2 e2 [Af]3 [A=d] | [Ge]6 [Ac]2 | %9
 [GB]2 [EG]2 [=DB]2 [DB]2 |[M:3/4] E6 |[M:1/4] e2 |[M:4/4] e6 z2 | e6 z2 | c6 z2 | c6 z2 | %16
 [EB]2 [Ec]2 [EB]2 [CEA]2 | B,2 z A B2 A2 | G2 G2 [EG]2 [=DF]2 | E6 z2 | E2 E2 F2 F2 | %21
 G3 _G =G2 G2 | [GB]2 B2 c2 [Ac]2 | [Bd]3 c d2 e2 | e6 z2 | e6 z2 | z4 B4 |[M:3/4] [CA]6 |] %28
V:2
 z4 z2 C2 | [A,,A,]2 z D [A,,A,]2 [E,,E,]2 | [D,,D,]2 [F,,F,]2 [A,,A,]2 [E,G,]2 | %3
 [E,G,]2 F,2 G,2 [B,DE]2 | [A,CE]6 [A,CE]2 | [C,C]2 [C,C]2 [F,C]2 [F,A,]2 | %6
 [E,B,]2 [E,E]2[K:treble] [A,EA]2 [=A,E]2 | [B,EG]2 [B,G]2[K:bass] [B,,B,]3 [B,,B,] | %8
 [E,B,]6 [E,E]2 | [E,E]2 [E,B,]2 [B,,B,]2 [B,,A,]2 |[M:3/4] [E,G,]6 |[M:1/4] [E,G,E]2 | %12
[M:4/4] E6 z2 | E6 z2 | C6 z2 | C4 z4 | [B,,G,]2 [B,,A,]2 [B,,G,]2 B,,2 | %17
 E,2 z[K:treble] E [G,B,E]2 [F,CF]2 | [B,E]2 [B,E]2[K:bass] [B,,B,]2 [B,,A,]2 | %19
 [E,G,]2 F,2 G,2 [E,G,D]2 | [E,G,D]2 [E,G,D]2 [E,A,D]2 [E,A,D]2 | %21
 [E,B,D]3 [E,=A,D] [E,B,D]2 [E,B,D]2 | z2[K:treble] G2 A2[K:bass] [E,E]2 | %23
 z2 z[K:treble] =A B2[K:bass] [E,G,E]2 | E6 z2 | E6 z2 | E6 z2 |[M:3/4] [A,,A,]6 |] %28
V:3
 x8 | z2 z B [CA]2 [CG]2 | x8 | z2 A,2 B,2 e2 | x8 | x8 | x8 | x8 | x8 | x8 |[M:3/4] x6 | %11
[M:1/4] x2 |[M:4/4] z2 A,2 B,2 e2 | z2 z B, A,2 c2 | z2 A,2 B,2 c2 | z2 z B, C2 [Ec]2 | x8 | %17
 [EG]4 z4 | x8 | z2 A,2 B,2 E2 | x8 | x8 | x8 | x8 | z2 A,2 B,2 e2 | z2 z B, A,2 [Fd]2 | c4 z2 D2 | %27
[M:3/4] x6 |] %28
V:4
 x8 | z2 E,2 z4 | x8 | x8 | x8 | x8 | x8 | x8 | x8 | x8 |[M:3/4] x6 |[M:1/4] x2 |[M:4/4] x8 | x8 | %14
 x8 | x8 | x8 | z2 B,2 z4 | x8 | x8 | x8 | x8 | x8 | x8 | x8 | x8 | x8 |[M:3/4] x6 |] %28
V:5
 x8 | z2 E,,2 z4 | x8 | x8 | x8 | x8 | x4[K:treble] x4 | x4[K:bass] x4 | x8 | x8 |[M:3/4] x6 | %11
[M:1/4] x2 |[M:4/4] [E,G,]2 F,2 G,2 [B,DE]2 | [A,C]3 G, F,2 [=E,G,C]2 | [=E,G,]2 F,2 G,2 [E,G,C]2 | %15
 [F,A,]3 G, A,2 [A,,A,]2 | x8 | z2 F,2[K:treble] z4 | x4[K:bass] x4 | x8 | x8 | x8 | %22
 [E,E]6[K:treble][K:bass] z2 | [E,E]6[K:treble][K:bass] z2 | [E,G,]2 F,2 G,2 [B,DE]2 | %25
 [A,C]3 G, F,2 [D,A,]2 | [E,A,]4 [E,G,]4 |[M:3/4] x6 |] %28

